media/costumes/3-glow.svg

<svg width="67" height="85" xmlns="http://www.w3.org/2000/svg"><path fill="#0CC" d="M65.02 45.51c-.16-.72-.39-1.43-.69-2.1-.31-.71-.65-1.37-1.03-1.98-2.01-4.65-5.72-9.81-12.54-13.62 1.11-1.45 2.03-2.73 2.79-3.85.59-.48 1.13-1.02 1.61-1.61 3.42-4.21 4.13-9.59 1.91-14.42a13.748 13.748 0 0 0-5.53-6.14C49.49.59 47.17 0 44.46 0c-.86 0-1.76.06-2.74.18-.9.1-1.78.21-2.64.32-8.19.53-9.96.57-10.31.57h-.3c-7.86.22-10.92.26-12.1.26-.1 0-.19 0-.29.01-5.13.13-9.28 1.75-12.33 4.8-.2.2-.39.4-.57.62C1.1 9.18 0 12.2 0 15.5c0 .91.11 1.8.32 2.65.08.37.22 1.07.41 2.08.14.71.34 1.39.61 2.05.75 4.67.92 6.12.95 6.5.01.08.01.17.02.25.1 1.97.46 4.9 2.27 7.62.18.26.36.52.56.76.75.94 1.59 1.76 2.51 2.46-.94.98-1.86 2.14-2.73 3.5C2.12 47.71.71 52.06.71 56.31c0 1.56.2 3.06.6 4.46.13.44.28.86.46 1.27.13 1.03.41 2.03.82 2.98.21.47.38.87.51 1.18.99 3.3 3.19 6.41 6.98 9.93 2.87 2.7 5.48 4.65 7.99 5.95.16.09.32.17.49.24 2.85 1.31 5.69 1.97 8.45 1.97h.18C40.9 84.07 51.95 79.93 60.04 72c.58-.57 1.1-1.2 1.54-1.88.97-1.51 1.68-2.85 2.17-4.15 1.54-3.36 2.32-7.19 2.32-11.42 0-2.83-.35-5.87-1.05-9.04zM1.11 20.35c-.28-.59-.52-1.21-.7-1.86.19.65.43 1.27.72 1.86h-.02z"/><path fill="#FFF" d="M54.278 47.869c.528 2.405.792 4.633.792 6.685 0 2.814-.499 5.22-1.495 7.213-.176.587-.587 1.379-1.231 2.375-6.041 5.922-14.484 8.972-25.333 9.148-1.174 0-2.463-.323-3.87-.968-1.583-.822-3.431-2.229-5.541-4.223-2.405-2.228-3.754-4.016-4.047-5.365a48.6 48.6 0 0 0-.879-2.111c0-.117-.206-1.407-.616-3.87-.118.176-.176.499-.176.968a5.103 5.103 0 0 1-.176-1.407c0-2.111.82-4.442 2.463-6.993 1.641-2.551 3.431-3.826 5.365-3.826.938 0 1.848.353 2.727 1.06.234.177.353.56.353 1.147 0 .236-.104.546-.308.928-.207.382-.339.691-.396.926l-2.463 2.12c-1.174 1.118-1.818 2.06-1.935 2.825a6.156 6.156 0 0 0-.177 1.501c0 2.944 1.32 5.843 3.959 8.697 2.639 2.854 5.423 4.281 8.356 4.281.527 0 1.084-.059 1.671-.176.996-.06 2.463-.178 4.397-.354 2.287-.529 4.632-1.408 7.037-2.643 2.932-1.527 4.75-3.157 5.453-4.891.704-1.731 1.056-3.627 1.056-5.683 0-1.996-.352-3.846-1.056-5.55-.176-.471-.439-1.146-.791-2.027-2.347-3.524-4.956-5.726-7.828-6.608-.704-.233-2.171-.381-4.398-.439-2.229-.06-3.842-.147-4.838-.266-1.935-.233-3.489-.733-4.662-1.498-.352-.409-.527-.908-.527-1.496 0-1.41.585-2.468 1.759-3.173.938-.587 2.668-2.937 5.19-7.049 1.699-2.408 4.162-5.991 7.389-10.749-7.213 0-14.368.439-21.463 1.319 0 .88.205 2.493.616 4.838.527 3.108.82 4.956.879 5.542.058.703-.234 1.422-.879 2.154-.646.734-1.467 1.188-2.463 1.363-.939.177-1.76-.176-2.463-1.055-.235-.353-.383-1.056-.44-2.111 0-.88-.47-4.163-1.407-9.852-.059-.117-.176-.264-.352-.44-.353-1.816-.528-2.696-.528-2.639 0-.645.176-1.172.528-1.583.996-.996 2.608-1.524 4.838-1.583 1.816 0 5.951-.088 12.402-.265 1.231 0 5.014-.204 11.347-.615a556.34 556.34 0 0 1 2.902-.352c1.465-.176 2.448-.117 2.947.176a2.65 2.65 0 0 1 1.099 1.231c.469.998.322 1.965-.439 2.902-.411.235-.91.675-1.495 1.319-.763 1.231-1.922 2.859-3.475 4.882-1.554 2.023-2.683 3.622-3.386 4.794a693.281 693.281 0 0 1-4.311 7.389c10.496 1.583 17.034 5.894 19.615 12.931.234.237.47.618.704 1.146z"/></svg>

<svg version="1.1" width="67" height="85" xmlns="http://www.w3.org/2000/svg" xmlns:xlink="http://www.w3.org/1999/xlink">
  <!-- Exported by Scratch - http://scratch.mit.edu/ -->
  <g id="ID0.8548555038869381">
    <g id="ID0.3599918372929096">
      <g id="ID0.638770641759038">
        <path id="ID0.9592072083614767" fill="#00CCCC" d="M 65.020 45.510 C 64.860 44.790 64.630 44.080 64.330 43.410 C 64.020 42.700 63.680 42.040 63.300 41.430 C 61.290 36.780 57.580 31.620 50.760 27.810 C 51.870 26.360 52.790 25.080 53.550 23.960 C 54.140 23.480 54.680 22.940 55.160 22.350 C 58.580 18.140 59.290 12.760 57.070 7.930 C 55.900 5.370 54 3.250 51.540 1.790 C 49.490 0.590 47.170 0 44.460 0 C 43.600 0 42.700 0.060 41.720 0.180 C 40.820 0.280 39.940 0.390 39.080 0.500 C 30.890 1.030 29.120 1.070 28.770 1.070 L 28.470 1.070 C 20.610 1.290 17.550 1.330 16.370 1.330 C 16.270 1.330 16.180 1.330 16.080 1.340 C 10.950 1.470 6.800 3.090 3.750 6.140 C 3.550 6.340 3.360 6.540 3.180 6.760 C 1.100 9.180 0 12.200 0 15.500 C 0 16.410 0.110 17.300 0.320 18.150 C 0.400 18.520 0.540 19.220 0.730 20.230 C 0.870 20.940 1.070 21.620 1.340 22.280 C 2.090 26.950 2.260 28.400 2.290 28.780 C 2.300 28.860 2.300 28.950 2.310 29.030 C 2.410 31 2.770 33.930 4.580 36.650 C 4.760 36.910 4.940 37.170 5.140 37.410 C 5.890 38.350 6.730 39.170 7.650 39.870 C 6.710 40.850 5.790 42.010 4.920 43.370 C 2.120 47.710 0.710 52.060 0.710 56.310 C 0.710 57.870 0.910 59.370 1.310 60.770 C 1.440 61.210 1.590 61.630 1.770 62.040 C 1.900 63.070 2.180 64.070 2.590 65.020 C 2.800 65.490 2.970 65.890 3.100 66.200 C 4.090 69.500 6.290 72.610 10.080 76.130 C 12.950 78.830 15.560 80.780 18.070 82.080 C 18.230 82.170 18.390 82.250 18.560 82.320 C 21.410 83.630 24.250 84.290 27.010 84.290 L 27.190 84.290 C 40.900 84.070 51.950 79.930 60.040 72 C 60.620 71.430 61.140 70.800 61.580 70.120 C 62.550 68.610 63.260 67.270 63.750 65.970 C 65.290 62.610 66.070 58.780 66.070 54.550 C 66.070 51.720 65.720 48.680 65.020 45.510 Z M 1.110 20.350 C 0.830 19.760 0.590 19.140 0.410 18.490 C 0.600 19.140 0.840 19.760 1.130 20.350 L 1.110 20.350 Z "/>
      </g>
    </g>
    <g id="ID0.40964163560420275">
      <path id="ID0.3873927383683622" fill="#FFFFFF" d="M 54.278 47.869 C 54.806 50.274 55.070 52.502 55.070 54.554 C 55.070 57.368 54.571 59.774 53.575 61.767 C 53.399 62.354 52.988 63.146 52.344 64.142 C 46.303 70.064 37.860 73.114 27.011 73.290 C 25.837 73.290 24.548 72.967 23.141 72.322 C 21.558 71.500 19.710 70.093 17.600 68.099 C 15.195 65.871 13.846 64.083 13.553 62.734 C 13.377 62.265 13.083 61.561 12.674 60.623 C 12.674 60.506 12.468 59.216 12.058 56.753 C 11.940 56.929 11.882 57.252 11.882 57.721 C 11.764 57.311 11.706 56.841 11.706 56.314 C 11.706 54.203 12.526 51.872 14.169 49.321 C 15.810 46.770 17.600 45.495 19.534 45.495 C 20.472 45.495 21.382 45.848 22.261 46.555 C 22.495 46.732 22.614 47.115 22.614 47.702 C 22.614 47.938 22.510 48.248 22.306 48.630 C 22.099 49.012 21.967 49.321 21.910 49.556 C 21.089 50.263 20.267 50.969 19.447 51.676 C 18.273 52.794 17.629 53.736 17.512 54.501 C 17.394 54.972 17.335 55.472 17.335 56.002 C 17.335 58.946 18.655 61.845 21.294 64.699 C 23.933 67.553 26.717 68.980 29.650 68.980 C 30.177 68.980 30.734 68.921 31.321 68.804 C 32.317 68.744 33.784 68.626 35.718 68.450 C 38.005 67.921 40.350 67.042 42.755 65.807 C 45.687 64.280 47.505 62.650 48.208 60.916 C 48.912 59.185 49.264 57.289 49.264 55.233 C 49.264 53.237 48.912 51.387 48.208 49.683 C 48.032 49.212 47.769 48.537 47.417 47.656 C 45.070 44.132 42.461 41.930 39.589 41.048 C 38.885 40.815 37.418 40.667 35.191 40.609 C 32.962 40.549 31.349 40.462 30.353 40.343 C 28.418 40.110 26.864 39.610 25.691 38.845 C 25.339 38.436 25.164 37.937 25.164 37.349 C 25.164 35.939 25.749 34.881 26.923 34.176 C 27.861 33.589 29.591 31.239 32.113 27.127 C 33.812 24.719 36.275 21.136 39.502 16.378 C 32.289 16.378 25.134 16.817 18.039 17.697 C 18.039 18.577 18.244 20.190 18.655 22.535 C 19.182 25.643 19.475 27.491 19.534 28.077 C 19.592 28.780 19.300 29.499 18.655 30.231 C 18.009 30.965 17.188 31.419 16.192 31.594 C 15.253 31.771 14.432 31.418 13.729 30.539 C 13.494 30.186 13.346 29.483 13.289 28.428 C 13.289 27.548 12.819 24.265 11.882 18.576 C 11.823 18.459 11.706 18.312 11.530 18.136 C 11.177 16.320 11.002 15.440 11.002 15.497 C 11.002 14.852 11.178 14.325 11.530 13.914 C 12.526 12.918 14.138 12.390 16.368 12.331 C 18.184 12.331 22.319 12.243 28.770 12.066 C 30.001 12.066 33.784 11.862 40.117 11.451 C 41.055 11.334 42.022 11.218 43.019 11.099 C 44.484 10.923 45.467 10.982 45.966 11.275 C 46.463 11.569 46.830 11.978 47.065 12.506 C 47.534 13.504 47.387 14.471 46.626 15.408 C 46.215 15.643 45.716 16.083 45.131 16.727 C 44.368 17.958 43.209 19.586 41.656 21.609 C 40.102 23.632 38.973 25.231 38.270 26.403 C 37.331 28.046 35.895 30.508 33.959 33.792 C 44.455 35.375 50.993 39.686 53.574 46.723 C 53.808 46.960 54.044 47.341 54.278 47.869 Z "/>
    </g>
  </g>
</svg>
